dist/img/icons/telegram.svg

<svg width="40" height="41" viewBox="0 0 40 41" fill="none" xmlns="http://www.w3.org/2000/svg">
<g id="Telegram">
<g id="Telegram_2">
<path id="Exclude" fill-rule="evenodd" clip-rule="evenodd" d="M25.9282 34.1989C27.7921 35.0144 28.4911 33.3058 28.4911 33.3058L33.4226 8.53147C33.3838 6.86173 31.1316 7.87134 31.1316 7.87134L3.52257 18.7053C3.52257 18.7053 2.20231 19.1712 2.3188 19.9867C2.4353 20.8021 3.48374 21.1905 3.48374 21.1905L10.4345 23.5203C10.4345 23.5203 12.5314 30.3935 12.9586 31.7137C13.3469 32.9952 13.6964 33.034 13.6964 33.034C14.0847 33.1893 14.4342 32.9175 14.4342 32.9175L18.9386 28.8402L25.9282 34.1989ZM27.132 12.9194C27.132 12.9194 28.1027 12.3369 28.0639 12.9194C28.0639 12.9194 28.2192 12.997 27.7144 13.5407C27.2485 14.0066 16.2592 23.8698 14.7836 25.19C14.6671 25.2677 14.5895 25.3842 14.5895 25.5395L14.1623 29.1897C14.0847 29.578 13.5799 29.6168 13.4634 29.2673L11.6383 23.2873C11.5606 23.0543 11.6383 22.7825 11.8713 22.6272L27.132 12.9194Z" fill="#F8F8FF"/>
</g>
</g>
</svg>

<svg width="40" height="41" fill="none" xmlns="http://www.w3.org/2000/svg"><path fill-rule="evenodd" clip-rule="evenodd" d="M25.928 34.199c1.864.815 2.563-.893 2.563-.893L33.423 8.53c-.04-1.67-2.291-.66-2.291-.66L3.522 18.705s-1.32.466-1.203 1.282c.116.815 1.165 1.204 1.165 1.204l6.95 2.33s2.097 6.872 2.525 8.193c.388 1.281.737 1.32.737 1.32.389.155.738-.117.738-.117l4.505-4.077 6.99 5.359zm1.204-21.28s.97-.582.932 0c0 0 .155.078-.35.622-.465.466-11.455 10.329-12.93 11.649a.408.408 0 00-.195.35l-.427 3.65c-.077.388-.582.427-.699.077l-1.825-5.98a.572.572 0 01.233-.66l15.261-9.708z" fill="#F8F8FF"/></svg>
